assets/images/btn_appstore_patch.svg

<svg width="127" height="50" viewBox="0 0 127 50" fill="none" xmlns="http://www.w3.org/2000/svg">
<path fill-rule="evenodd" clip-rule="evenodd" d="M122.482 50H4.44876C1.99625 50 0 47.34 0 44.0837V5.9075C0 2.65 1.99625 0 4.44876 0H122.482C124.933 0 127 2.65 127 5.9075V44.0837C127 47.34 124.933 50 122.482 50V50V50Z" fill="#004177"/>
<g opacity="0.7">
<path fill-rule="evenodd" clip-rule="evenodd" d="M39.5493 23.5581C39.5192 20.209 42.2856 18.5797 42.4121 18.5038C40.8454 16.2146 38.417 15.9018 37.5637 15.8769C35.5242 15.6618 33.5458 17.1 32.5069 17.1C31.4472 17.1 29.8473 15.8977 28.123 15.933C25.9041 15.9673 23.8282 17.2548 22.6897 19.2541C20.3402 23.3305 22.0925 29.3211 24.3436 32.6162C25.4696 34.2299 26.7854 36.0318 28.5076 35.9684C30.1926 35.8988 30.8219 34.8918 32.8553 34.8918C34.8699 34.8918 35.4609 35.9684 37.2174 35.9278C39.0257 35.8988 40.1642 34.3068 41.2508 32.6785C42.5521 30.8289 43.0747 29.0073 43.0954 28.9138C43.0529 28.8992 39.5835 27.5722 39.5493 23.5581V23.5581Z" fill="white"/>
<path fill-rule="evenodd" clip-rule="evenodd" d="M36.2313 13.7094C37.1375 12.5737 37.7576 11.0285 37.5855 9.46045C36.2738 9.51864 34.6335 10.3697 33.6889 11.4805C32.8532 12.4594 32.1066 14.0638 32.2995 15.5726C33.7729 15.6827 35.2857 14.8275 36.2313 13.7094V13.7094Z" fill="white"/>
</g>
<path opacity="0.7" d="M58.0039 21V15.3633H53.5859V21H54.293V16.0039H57.3086V21H58.0039ZM61.5469 16.8672C60.957 16.8672 60.4844 17.168 60.2344 17.625H60.2188V16.9375H59.5742V22.3555H60.2539V20.3398H60.2695C60.5117 20.7852 60.9805 21.0703 61.5625 21.0703C62.5859 21.0703 63.2852 20.2422 63.2852 18.9688C63.2852 17.6953 62.582 16.8672 61.5469 16.8672ZM61.4141 20.4727C60.7188 20.4727 60.25 19.875 60.25 18.9688C60.25 18.0664 60.7188 17.4648 61.4141 17.4648C62.1367 17.4648 62.5898 18.0508 62.5898 18.9688C62.5898 19.8906 62.1367 20.4727 61.4141 20.4727ZM65.2188 21L67.2422 17.9805H67.2734V21H67.9531V16.9375H67.2812L65.2578 19.957H65.2266V16.9375H64.5469V21H65.2188ZM70.5 19.207L70.625 17.4961H71.9922V21H72.6719V16.9375H70.0117L69.8555 19.1914C69.8047 19.9375 69.6523 20.4102 69.25 20.4102C69.1523 20.4102 69.0781 20.3906 69.043 20.3789V20.9922C69.0898 21.0117 69.168 21.0352 69.2852 21.0352C70.1406 21.0352 70.418 20.3281 70.5 19.207ZM75.8203 21.0703C76.9414 21.0703 77.6992 20.2617 77.6992 18.9688C77.6992 17.6719 76.9414 16.8672 75.8203 16.8672C74.6953 16.8672 73.9375 17.6719 73.9375 18.9688C73.9375 20.2617 74.6953 21.0703 75.8203 21.0703ZM75.8203 20.4727C75.1016 20.4727 74.6289 19.9258 74.6289 18.9688C74.6289 18.0117 75.1016 17.4648 75.8203 17.4648C76.5391 17.4648 77.0078 18.0117 77.0078 18.9688C77.0078 19.9258 76.5391 20.4727 75.8203 20.4727ZM79.2383 21L80.8789 19.0469H80.9062V21H81.5781V19.0469H81.6094L83.25 21H84.1211L82.2852 18.8594L84.0586 16.9375H83.2305L81.6094 18.7344H81.5781V16.9375H80.9062V18.7344H80.8789L79.2578 16.9375H78.4219L80.2031 18.8711L78.3789 21H79.2383ZM87.7695 19.8359C87.6562 20.2188 87.2773 20.4805 86.7617 20.4805C86.0312 20.4805 85.5742 19.9688 85.5742 19.1914V19.1523H88.4883V18.8945C88.4883 17.6641 87.8125 16.8672 86.7148 16.8672C85.5938 16.8672 84.875 17.7227 84.875 18.9844C84.875 20.2617 85.582 21.0703 86.7461 21.0703C87.6328 21.0703 88.3203 20.5469 88.4375 19.8359H87.7695ZM86.7031 17.457C87.3438 17.457 87.7695 17.9414 87.7852 18.6211H85.5781C85.6211 17.9453 86.0664 17.457 86.7031 17.457ZM92.418 21H93.0977V16.9375H92.418V18.6133H90.4297V16.9375H89.75V21H90.4297V19.1719H92.418V21ZM95.2266 21L97.25 17.9805H97.2812V21H97.9609V16.9375H97.2891L95.2656 19.957H95.2344V16.9375H94.5547V21H95.2266ZM102.113 19.8359C102 20.2188 101.621 20.4805 101.105 20.4805C100.375 20.4805 99.918 19.9688 99.918 19.1914V19.1523H102.832V18.8945C102.832 17.6641 102.156 16.8672 101.059 16.8672C99.9375 16.8672 99.2188 17.7227 99.2188 18.9844C99.2188 20.2617 99.9258 21.0703 101.09 21.0703C101.977 21.0703 102.664 20.5469 102.781 19.8359H102.113ZM101.047 17.457C101.688 17.457 102.113 17.9414 102.129 18.6211H99.9219C99.9648 17.9453 100.41 17.457 101.047 17.457ZM55.2266 31C56.0898 31 56.6211 30.5508 56.6211 29.832C56.6211 29.3359 56.2852 28.9727 55.7734 28.9023V28.8711C56.1484 28.793 56.4414 28.4062 56.4414 27.9883C56.4414 27.3359 55.9766 26.9375 55.2148 26.9375H53.4766V31H55.2266ZM54.1562 27.4883H55.1133C55.5391 27.4883 55.7695 27.6914 55.7695 28.0586C55.7695 28.4531 55.5234 28.6445 55.0117 28.6445H54.1562V27.4883ZM54.1562 29.1914H55.0664C55.6602 29.1914 55.9453 29.3945 55.9453 29.8164C55.9453 30.2266 55.6797 30.4492 55.1875 30.4492H54.1562V29.1914ZM62.0156 26.8672C61.4258 26.8672 60.9531 27.168 60.7031 27.625H60.6875V26.9375H60.043V32.3555H60.7227V30.3398H60.7383C60.9805 30.7852 61.4492 31.0703 62.0312 31.0703C63.0547 31.0703 63.7539 30.2422 63.7539 28.9688C63.7539 27.6953 63.0508 26.8672 62.0156 26.8672ZM61.8828 30.4727C61.1875 30.4727 60.7188 29.875 60.7188 28.9688C60.7188 28.0664 61.1875 27.4648 61.8828 27.4648C62.6055 27.4648 63.0586 28.0508 63.0586 28.9688C63.0586 29.8906 62.6055 30.4727 61.8828 30.4727ZM66.207 31.0703C66.7539 31.0703 67.2695 30.7656 67.5117 30.3008H67.5273V31H68.1719V28.1914C68.1719 27.3828 67.5703 26.8672 66.6172 26.8672C65.6562 26.8672 65.0547 27.4062 65.0078 28.1094H65.6641C65.75 27.7109 66.0781 27.4648 66.6016 27.4648C67.1641 27.4648 67.4922 27.7617 67.4922 28.2578V28.5977L66.3281 28.6641C65.3906 28.7188 64.8555 29.1562 64.8555 29.8516C64.8555 30.582 65.3984 31.0703 66.207 31.0703ZM66.3594 30.4922C65.8711 30.4922 65.5469 30.2383 65.5469 29.8516C65.5469 29.4688 65.8594 29.2266 66.4062 29.1914L67.4922 29.125V29.457C67.4922 30.043 67 30.4922 66.3594 30.4922ZM70.9648 31.0703C71.918 31.0703 72.5508 30.5625 72.5508 29.8125C72.5508 29.3555 72.2734 29.0195 71.7383 28.9023V28.8711C72.1602 28.7734 72.4375 28.3984 72.4375 27.9766C72.4375 27.3164 71.9336 26.8672 71.0078 26.8672C70.1484 26.8672 69.5625 27.293 69.4766 27.9648H70.1367C70.1914 27.6406 70.5273 27.4336 71.0078 27.4336C71.5312 27.4336 71.7734 27.6836 71.7734 28.0312C71.7734 28.4414 71.5 28.6445 70.9648 28.6445H70.3555V29.1992H70.9648C71.5781 29.1992 71.8828 29.3984 71.8828 29.8438C71.8828 30.2305 71.5547 30.5078 70.9648 30.5078C70.4609 30.5078 70.125 30.3008 70.0469 29.9453H69.3594C69.4297 30.6328 70.0742 31.0703 70.9648 31.0703ZM75.8047 26.8672C75.2148 26.8672 74.7422 27.168 74.4922 27.625H74.4766V26.9375H73.832V32.3555H74.5117V30.3398H74.5273C74.7695 30.7852 75.2383 31.0703 75.8203 31.0703C76.8438 31.0703 77.543 30.2422 77.543 28.9688C77.543 27.6953 76.8398 26.8672 75.8047 26.8672ZM75.6719 30.4727C74.9766 30.4727 74.5078 29.875 74.5078 28.9688C74.5078 28.0664 74.9766 27.4648 75.6719 27.4648C76.3945 27.4648 76.8477 28.0508 76.8477 28.9688C76.8477 29.8906 76.3945 30.4727 75.6719 30.4727ZM79.9961 31.0703C80.543 31.0703 81.0586 30.7656 81.3008 30.3008H81.3164V31H81.9609V28.1914C81.9609 27.3828 81.3594 26.8672 80.4062 26.8672C79.4453 26.8672 78.8438 27.4062 78.7969 28.1094H79.4531C79.5391 27.7109 79.8672 27.4648 80.3906 27.4648C80.9531 27.4648 81.2812 27.7617 81.2812 28.2578V28.5977L80.1172 28.6641C79.1797 28.7188 78.6445 29.1562 78.6445 29.8516C78.6445 30.582 79.1875 31.0703 79.9961 31.0703ZM80.1484 30.4922C79.6602 30.4922 79.3359 30.2383 79.3359 29.8516C79.3359 29.4688 79.6484 29.2266 80.1953 29.1914L81.2812 29.125V29.457C81.2812 30.043 80.7891 30.4922 80.1484 30.4922ZM85.1406 31.0703C86.3164 31.0703 87.0391 30.2852 87.0391 29.0078C87.0391 27.7969 86.3398 27.0234 85.2422 27.0234C84.6172 27.0234 84.1094 27.2734 83.8438 27.7539H83.8125C83.9766 26.5391 84.3125 26.043 85.4414 26L85.7422 25.9883C86.2109 25.9688 86.6406 25.8672 86.7695 25.75V25.1562C86.5391 25.2773 86.1016 25.3555 85.7109 25.375L85.4102 25.3867C83.832 25.4453 83.2383 26.3789 83.2383 28.6211C83.2383 30.2344 83.8945 31.0703 85.1406 31.0703ZM85.1406 30.4688C84.375 30.4688 83.9336 29.9414 83.9336 29.0078C83.9336 28.1211 84.375 27.6172 85.1406 27.6172C85.9023 27.6172 86.3438 28.1211 86.3438 29.0078C86.3438 29.9414 85.9023 30.4688 85.1406 30.4688ZM89.9844 31.0703C91.1055 31.0703 91.8633 30.2617 91.8633 28.9688C91.8633 27.6719 91.1055 26.8672 89.9844 26.8672C88.8594 26.8672 88.1016 27.6719 88.1016 28.9688C88.1016 30.2617 88.8594 31.0703 89.9844 31.0703ZM89.9844 30.4727C89.2656 30.4727 88.793 29.9258 88.793 28.9688C88.793 28.0117 89.2656 27.4648 89.9844 27.4648C90.7031 27.4648 91.1719 28.0117 91.1719 28.9688C91.1719 29.9258 90.7031 30.4727 89.9844 30.4727ZM95.9414 26.9375H92.6445V27.4961H93.9531V31H94.6328V27.4961H95.9414V26.9375ZM97.7812 29.0469L99.5273 31H100.402L98.457 28.8594L100.348 26.9375H99.5078L97.7812 28.7344H97.75V26.9375H97.0703V31H97.75V29.0469H97.7812ZM104.09 29.8359C103.977 30.2188 103.598 30.4805 103.082 30.4805C102.352 30.4805 101.895 29.9688 101.895 29.1914V29.1523H104.809V28.8945C104.809 27.6641 104.133 26.8672 103.035 26.8672C101.914 26.8672 101.195 27.7227 101.195 28.9844C101.195 30.2617 101.902 31.0703 103.066 31.0703C103.953 31.0703 104.641 30.5469 104.758 29.8359H104.09ZM103.023 27.457C103.664 27.457 104.09 27.9414 104.105 28.6211H101.898C101.941 27.9453 102.387 27.457 103.023 27.457Z" fill="white"/>
</svg>

<svg width="127" height="50" fill="none" xmlns="http://www.w3.org/2000/svg"><path fill-rule="evenodd" clip-rule="evenodd" d="M122.482 50H4.449C1.996 50 0 47.34 0 44.084V5.907C0 2.65 1.996 0 4.449 0h118.033C124.933 0 127 2.65 127 5.907v38.177c0 3.256-2.067 5.916-4.518 5.916z" fill="#004177"/><path d="M39.55 23.558c-.03-3.349 2.736-4.978 2.862-5.054-1.567-2.29-3.995-2.602-4.848-2.627-2.04-.215-4.018 1.223-5.057 1.223-1.06 0-2.66-1.202-4.384-1.167-2.219.034-4.295 1.322-5.433 3.321-2.35 4.076-.598 10.067 1.654 13.362 1.126 1.614 2.441 3.416 4.164 3.352 1.685-.07 2.314-1.076 4.347-1.076 2.015 0 2.606 1.076 4.362 1.036 1.809-.03 2.947-1.621 4.034-3.25 1.301-1.85 1.824-3.67 1.844-3.764-.042-.015-3.511-1.342-3.546-5.356zm-3.319-9.848c.907-1.136 1.527-2.682 1.355-4.25-1.312.059-2.953.91-3.897 2.02-.836.98-1.582 2.584-1.39 4.093 1.474.11 2.987-.745 3.932-1.864z" opacity=".7" fill-rule="evenodd" clip-rule="evenodd" fill="#fff"/><path opacity=".7" d="M58.004 21v-5.637h-4.418V21h.707v-4.996h3.016V21h.695zm3.543-4.133c-.59 0-1.063.301-1.313.758h-.015v-.688h-.645v5.418h.68V20.34h.016c.242.445.71.73 1.292.73 1.024 0 1.723-.828 1.723-2.101 0-1.274-.703-2.102-1.738-2.102zm-.133 3.606c-.695 0-1.164-.598-1.164-1.504 0-.903.469-1.504 1.164-1.504.723 0 1.176.586 1.176 1.504 0 .922-.453 1.504-1.176 1.504zM65.22 21l2.023-3.02h.031V21h.68v-4.063h-.672l-2.023 3.02h-.031v-3.02h-.68V21h.672zm5.281-1.793l.125-1.71h1.367V21h.68v-4.063h-2.66l-.156 2.254c-.051.747-.204 1.22-.606 1.22a.67.67 0 01-.207-.032v.613a.62.62 0 00.242.043c.856 0 1.133-.707 1.215-1.828zm5.32 1.863c1.121 0 1.88-.808 1.88-2.101 0-1.297-.759-2.102-1.88-2.102-1.125 0-1.882.805-1.882 2.102 0 1.293.757 2.101 1.882 2.101zm0-.597c-.718 0-1.191-.547-1.191-1.504s.473-1.504 1.191-1.504c.72 0 1.188.547 1.188 1.504s-.469 1.504-1.188 1.504zm3.418.527l1.64-1.953h.028V21h.672v-1.953h.031L83.25 21h.871l-1.836-2.14 1.774-1.922h-.828l-1.622 1.796h-.03v-1.797h-.673v1.797h-.027l-1.621-1.797h-.836l1.781 1.934L78.38 21h.86zm8.531-1.164c-.113.383-.492.645-1.007.645-.73 0-1.188-.512-1.188-1.29v-.039h2.914v-.258c0-1.23-.675-2.027-1.773-2.027-1.121 0-1.84.856-1.84 2.117 0 1.278.707 2.086 1.871 2.086.887 0 1.574-.523 1.692-1.234h-.669zm-1.066-2.379c.64 0 1.066.484 1.082 1.164h-2.207c.043-.676.488-1.164 1.125-1.164zM92.418 21h.68v-4.063h-.68v1.676H90.43v-1.675h-.68V21h.68v-1.828h1.988V21zm2.809 0l2.023-3.02h.031V21h.68v-4.063h-.672l-2.023 3.02h-.032v-3.02h-.68V21h.673zm6.886-1.164c-.113.383-.492.645-1.008.645-.73 0-1.187-.512-1.187-1.29v-.039h2.914v-.258c0-1.23-.676-2.027-1.773-2.027-1.121 0-1.84.856-1.84 2.117 0 1.278.707 2.086 1.871 2.086.887 0 1.574-.523 1.691-1.234h-.668zm-1.066-2.379c.641 0 1.066.484 1.082 1.164h-2.207c.043-.676.488-1.164 1.125-1.164zM55.227 31c.863 0 1.394-.45 1.394-1.168 0-.496-.336-.86-.848-.93v-.03c.375-.079.668-.466.668-.884 0-.652-.464-1.05-1.226-1.05h-1.738V31h1.75zm-1.07-3.512h.956c.426 0 .657.203.657.57 0 .395-.247.587-.758.587h-.856v-1.157zm0 1.703h.91c.593 0 .878.204.878.625 0 .41-.265.633-.758.633h-1.03v-1.258zm7.859-2.324c-.59 0-1.063.301-1.313.758h-.016v-.688h-.644v5.418h.68V30.34h.015c.242.445.711.73 1.293.73 1.024 0 1.723-.828 1.723-2.101 0-1.274-.703-2.102-1.738-2.102zm-.133 3.606c-.696 0-1.164-.598-1.164-1.504 0-.903.468-1.504 1.164-1.504.722 0 1.176.586 1.176 1.504 0 .922-.453 1.504-1.176 1.504zm4.324.597c.547 0 1.063-.304 1.305-.77h.015v.7h.645v-2.809c0-.808-.602-1.324-1.555-1.324-.96 0-1.562.54-1.61 1.242h.657c.086-.398.414-.644.938-.644.562 0 .89.297.89.793v.34l-1.164.066c-.937.055-1.472.492-1.472 1.188 0 .73.542 1.218 1.351 1.218zm.152-.578c-.488 0-.812-.254-.812-.64 0-.383.312-.625.86-.66l1.085-.067v.332c0 .586-.492 1.035-1.133 1.035zm4.606.578c.953 0 1.586-.508 1.586-1.258 0-.457-.278-.793-.813-.91v-.03a.907.907 0 00.7-.895c0-.66-.504-1.11-1.43-1.11-.86 0-1.445.426-1.531 1.098h.66c.054-.324.39-.531.87-.531.524 0 .766.25.766.597 0 .41-.273.614-.808.614h-.61v.554h.61c.613 0 .918.2.918.645 0 .386-.328.664-.918.664-.504 0-.84-.207-.918-.563h-.688c.07.688.715 1.125 1.606 1.125zm4.84-4.203c-.59 0-1.063.301-1.313.758h-.015v-.688h-.645v5.418h.68V30.34h.015c.242.445.711.73 1.293.73 1.024 0 1.723-.828 1.723-2.101 0-1.274-.703-2.102-1.738-2.102zm-.133 3.606c-.695 0-1.164-.598-1.164-1.504 0-.903.469-1.504 1.164-1.504.722 0 1.176.586 1.176 1.504 0 .922-.454 1.504-1.176 1.504zm4.324.597c.547 0 1.063-.304 1.305-.77h.015v.7h.645v-2.809c0-.808-.602-1.324-1.555-1.324-.96 0-1.562.54-1.61 1.242h.657c.086-.398.414-.644.938-.644.562 0 .89.297.89.793v.34l-1.164.066c-.937.055-1.473.492-1.473 1.188 0 .73.543 1.218 1.352 1.218zm.152-.578c-.488 0-.812-.254-.812-.64 0-.383.312-.625.86-.66l1.085-.067v.332c0 .586-.492 1.035-1.133 1.035zm4.993.578c1.175 0 1.898-.785 1.898-2.062 0-1.211-.7-1.985-1.797-1.985-.625 0-1.133.25-1.398.73h-.031c.164-1.214.5-1.71 1.628-1.753l.301-.012c.469-.02.899-.12 1.027-.238v-.594c-.23.121-.667.2-1.058.219l-.3.012c-1.579.058-2.173.992-2.173 3.234 0 1.613.656 2.45 1.903 2.45zm0-.601c-.766 0-1.207-.528-1.207-1.461 0-.887.441-1.39 1.207-1.39.761 0 1.203.503 1.203 1.39 0 .933-.442 1.46-1.203 1.46zm4.843.601c1.122 0 1.88-.808 1.88-2.101 0-1.297-.758-2.102-1.88-2.102-1.125 0-1.882.805-1.882 2.102 0 1.293.757 2.101 1.882 2.101zm0-.597c-.718 0-1.191-.547-1.191-1.504s.473-1.504 1.191-1.504c.72 0 1.188.547 1.188 1.504s-.469 1.504-1.188 1.504zm5.957-3.535h-3.297v.558h1.31V31h.679v-3.504h1.308v-.558zm1.84 2.109L99.527 31h.875l-1.945-2.14 1.891-1.922h-.84l-1.727 1.796h-.031v-1.797h-.68V31h.68v-1.953h.031zm6.309.789c-.113.383-.492.645-1.008.645-.73 0-1.187-.512-1.187-1.29v-.039h2.914v-.258c0-1.23-.676-2.027-1.774-2.027-1.121 0-1.84.856-1.84 2.117 0 1.278.707 2.086 1.871 2.086.887 0 1.575-.523 1.692-1.234h-.668zm-1.067-2.379c.641 0 1.067.484 1.082 1.164h-2.207c.043-.676.489-1.164 1.125-1.164z" fill="#fff"/></svg>
